!!!!SEGMENT: pl-kk--kk-i-6--015_anonim--agnus-dei.krn
!!!cenid: 16xx:970
!!!COM: Anonim
!!!COM-rismid: pe30004985
!!!CDT:
!!!CNT:
!!!OTL: Agnus Dei
!!!PDT:
!!!AGN: Sacred
!!!SMS-siglum: PL-Kk
!!!SMS-shelfmark: Kk.I.6
!!!SMS-shelfwork: 015 W
!!!SMS-variant:
!!!SMS-altvar:
!!!NIFC-rismid: 1001135700
!!!URL-scan: http://repozytorium.nifc.pl/skany/pl-kk-nut--i-6
!!!ONB-nifc: UWAGA: C (skan 0011-0012, s. 19-20), T (skan 0113-0114, s. 30-32), B (skan 0224-0225, s. 29-30) Następny utwór: Ecce virgo concipiet
!!!AIN: 1 empty 1 tenor 1 vox
!!!key:
**kern	**text	**kern	**text	**kern	**text
*part3	*part3	*part2	*part2	*part1	*part1
*staff3	*staff3	*staff2	*staff2	*staff1	*staff1
*Iempty	*	*Itenor	*	*Ivox	*
*I"Baſsus.	*	*I"Tenor.	*	*I"Cantus.	*
*I'B	*	*I'T	*	*I'S	*
*clefF4	*	*clefC4	*	*clefC4	*
*k[b-]	*	*k[b-]	*	*k[b-]	*
*F:	*	*F:	*	*F:	*
*M2/1	*	*M2/1	*	*M2/1	*
*met(C|)	*	*met(C|)	*	*met(C|)	*
=1-	=1-	=1-	=1-	=1-	=1-
!LO:TX:t=P:problem=all/middle or right&colon; global	!	!	!	!	!
!LO:TX:t=P:problem=w źródle przed kluczem inicjał A	!	!	!	!	!
*	*	*lig	*	*	*
!	!	!LO:TX:t=P:problem=w źródle przed kluczem inicjał A	!	!LO:TX:t=P:met(c|):problem	!
*	*	*	*	*lig	*
!	!	!	!	!LO:TX:t=P:problem=w źródle przed kluczem inicjał A	!
2.C/	A-	1c	A-	1c	A-
4BB-/	.	.	.	.	.
4GG/	.	1B-	.	1d	.
4AA/	-Gnus	.	.	.	.
2BB-/	.	.	.	.	.
*	*	*Xlig	*	*Xlig	*
=2-	=2-	=2-	=2-	=2-	=2-
!	!	!LO:TX:t=P:problem=all/middle or right&colon; global	!	!	!
*	*	*	*	*lig	*
2.FF/	.	2.A/	.	1c	.
!	!	!LO:TX:t=P:problem=all\middle&colon; global	!	!	!
4GG/	.	4B-\	.	.	.
4AA/	.	4c\	.	1A	.
4BB-/	.	4d\	.	.	.
2C/	.	2e\	.	.	.
*	*	*	*	*Xlig	*
=3-	=3-	=3-	=3-	=3-	=3-
*	*ij	*	*	*	*
2.BB-/	A-	2f\	.	1F	.
.	.	1d	.	.	.
4AA/	.	.	.	.	.
*	*	*	*	*lig	*
1GG	.	.	.	1G	.
.	.	4c\	-Gnus	.	.
.	.	4B-\	.	.	.
=4-	=4-	=4-	=4-	=4-	=4-
2FF/	-gnus	1.c	.	1A	.
*	*Xij	*	*	*	*
1F	De-	.	.	.	.
*	*	*	*	*Xlig	*
*	*	*	*	*lig	*
.	.	.	.	1G	-gnus
!LO:TX:t=P:problem=all\middle&colon; global	!	!	!	!	!
2E\	.	2c\	A-	.	.
=5-	=5-	=5-	=5-	=5-	=5-
4F\	.	1A	-gnus	1F,<	.
4E\	.	.	.	.	.
4D/	.	.	.	.	.
*custos:BB	*	*	*	*	*
4C/	.	.	.	.	.
!LO:LB:g=original	!	!	!	!	!
*	*	*	*	*Xlig	*
*	*	*	*	*lig	*
2.BB-/	.	1d	De-	1B-	De-
4AA/	.	.	.	.	.
=6-	=6-	=6-	=6-	=6-	=6-
*	*	*custos:c	*	*	*
4FF/	.	0c	-i	1A	.
4GG/	.	.	.	.	.
4AA/	.	.	.	.	.
4BB-/	.	.	.	.	.
*	*	*	*	*Xlig	*
*	*	*	*	*lig	*
4C/	.	.	.	1G	.
4D/	.	.	.	.	.
2E\	.	.	.	.	.
!	!	!LO:PB:g=original	!	!	!
=7-	=7-	=7-	=7-	=7-	=7-
2D/	.	1r	.	1A	.
2F\	.	.	.	.	.
*	*	*	*	*Xlig	*
*	*	*	*	*lig	*
1C	.	2r	.	1G	.
.	.	2c\	Qui	.	.
=8-	=8-	=8-	=8-	=8-	=8-
*	*	*	*	*custos:F	*
1FF	-i	2A/	tol-	1F	-i
.	.	4c\	.	.	.
.	.	4B-\	.	.	.
!	!	!	!	!LO:PB:g=original	!
*	*	*	*	*Xlig	*
*	*	*	*	*lig	*
2r	.	4A/	.	1F	Qui
.	.	4G/	.	.	.
2F\	Qui	2A/	.	.	.
=9-	=9-	=9-	=9-	=9-	=9-
2D/	.	2.F/	.	1A,<	.
1F	tol-	.	.	.	.
.	.	4G/	.	.	.
*	*	*	*	*Xlig	*
*	*	*	*	*lig	*
.	.	4A/	.	1c	tol-
.	.	4B-\	.	.	.
2E\	.	1c\	.	.	.
=10-	=10-	=10-	=10-	=10-	=10-
1D	.	.	.	1d	.
.	.	2B-\	.	.	.
*	*	*	*	*Xlig	*
*	*	*	*	*lig	*
2C/	.	1c	-lis	1e	.
*custos:BB	*	*	*	*	*
2AA/	.	.	.	.	.
!LO:LB:g=original	!	!	!	!	!
=11-	=11-	=11-	=11-	=11-	=11-
2.BB-/	.	1F	qui	1d	.
4AA/	.	.	.	.	.
*	*	*	*	*Xlig	*
1GG,<	.	1G	tol-	1B-	.
=12-	=12-	=12-	=12-	=12-	=12-
2FF/	-lis	2A/	-lis	1c,<	-lis
1F	pec-	1A	pec-	.	.
.	.	.	.	1f	pec-
2F\	-ca-	2A/	-ca-	.	.
=13-	=13-	=13-	=13-	=13-	=13-
*	*	*custos:B	*	*	*
1BB-	-ta	1B-	-ta	1d	-ca-
!	!	!LO:LB:g=original	!	!	!
1BB-	mun-	1B-	mun-	1f,<	-ta
=14-	=14-	=14-	=14-	=14-	=14-
*	*	*	*	*lig	*
1C	-di	2G/	-di	1e	mun-
.	.	1c	pec-	.	.
2r	.	.	.	1f	.
2F\	pec-	2A/	-ca-	.	.
*	*	*	*	*Xlig	*
=15-	=15-	=15-	=15-	=15-	=15-
2G\	-ca-	2B-\	-ta	1e	.
2A\	-ta	2c\	mun-	.	.
*	*	*	*	*lig	*
1B-	.	1G	-di	1d	.
=16-	=16-	=16-	=16-	=16-	=16-
2.A\	mun-	2r	.	1c	.
.	.	2c\	pec-	.	.
4G\	.	.	.	.	.
*	*	*	*	*Xlig	*
*	*	*	*	*custos:c	*
2F\	.	2A/	-ca-	1d	.
2G\	.	2B-\	-ta	.	.
!	!	!	!	!LO:LB:g=original	!
=17-	=17-	=17-	=17-	=17-	=17-
*custos:D	*	*	*	*	*
1E	.	1G	mun-	1c,<	-di
!LO:LB:g=original	!	!	!	!	!
2D,</	-di	2A/	-di	1f	mi-
2BB-/	pec-	2B-\	Mi-	.	.
=18-	=18-	=18-	=18-	=18-	=18-
*	*	*	*	*lig	*
2AA/	-ca-	2c\	-se-	1f	-ſe-
2BB-/	-ta	4B-\	-re-	.	.
.	.	4A/	.	.	.
1C	mun-	1G	.	1c	.
*	*	*	*	*Xlig	*
=19-	=19-	=19-	=19-	=19-	=19-
!LO:N:vis=4	!	!	!	!	!
2C\	-di	2.c\	-re-	1A	-re-
2.F\	Mi-	.	.	.	.
*	*	*custos:A	*	*	*
.	.	4B-\	.	.	.
!	!	!LO:LB:g=original	!	!	!
.	.	4A/	-re	1F	-re
4E\	.	4G/	.	.	.
4D/	.	4F/	.	.	.
4C/	.	4E/	.	.	.
=20-	=20-	=20-	=20-	=20-	=20-
*	*	*	*	*lig	*
2BB-/	.	2D/	.	1B-	no-
2GG/	-se-	2.G/	.	.	.
2AA/	-re-	.	.	1A	.
.	.	4F/	.	.	.
2FF/	-re	1F/	no-	.	.
*	*	*	*	*Xlig	*
=21-	=21-	=21-	=21-	=21-	=21-
*	*	*	*	*lig	*
1C	no-	.	.	1G	.
.	.	2E/	.	.	.
1FF	-bis	1F	-bis	1A	.
*	*	*	*	*Xlig	*
=22-	=22-	=22-	=22-	=22-	=22-
*	*	*	*	*lig	*
*	*	*	*ij	*	*
1rBB	.	1B-	Mi-	1G	-bis.
2rGG	.	2A/	.	[1Fl;;	.
*	*ij	*	*	*	*
2FF/	Mi-	2A/	-se-	.	.
*	*	*	*	*Xlig	*
=23-	=23-	=23-	=23-	=23-	=23-
2FF/	-se-	2A/	-re-	00F]	.
2FF/	-re-	2A/	-re	.	.
1BB-	-re	2.B-\	no-	.	.
.	.	4c\	.	.	.
=24-	=24-	=24-	=24-	=24-	=24-
1BB-	no-	2d\	.	.	.
.	.	2B-\	.	.	.
1FFl;;	-bis	1Al;;	-bis	.	.
*	*Xij	*	*Xij	*	*
!LO:LB:g=original	!	!LO:LB:g=original	!	!LO:LB:g=original	!
=25-	=25-	=25-	=25-	=25-	=25-
*	*	*	*	*M2/1	*
*	*	*	*	*met(C|)	*
!LO:TX:t=P:problem=inicjał A	!	!LO:TX:t=P:problem=w źródle przed kluczem inicjał A	!	!LO:TX:t=P:problem=w źródle przed kluczem inicjał A	!
2.F\	A-	2.c\	A-	1f	A-
4G\	.	4B-\	.	.	.
*	*	*	*	*lig	*
2A\	.	2c\	.	1f	- Gnus
2B-\	.	2d\	.	.	.
=26-	=26-	=26-	=26-	=26-	=26-
2G\	-Gnus	2B-\	-gnus	1e	.
2A\	.	2c\	.	.	.
*	*	*	*	*Xlig	*
*	*	*	*	*lig	*
2F\	.	2A/	.	1d	.
2G\	.	1B-\	De-	.	.
=27-	=27-	=27-	=27-	=27-	=27-
2.D/	De-	.	.	1e	.
.	.	4A/	.	.	.
4E\	.	4G/	.	.	.
*	*	*	*	*Xlig	*
1.F	.	2A/	.	1c,<	.
.	.	4F/	.	.	.
.	.	4G/	.	.	.
=28-	=28-	=28-	=28-	=28-	=28-
*	*	*	*	*lig	*
.	.	4A/	.	1c	De-
.	.	4B-\	.	.	.
2E\	.	1c	.	.	.
1D	.	.	.	1d	.
.	.	2B-\	.	.	.
*	*	*	*	*Xlig	*
=29-	=29-	=29-	=29-	=29-	=29-
*	*	*	*	*lig	*
1C	.	2c\	.	1e	-i
*	*	*custos:A	*	*	*
.	.	2G/	-i	.	.
*custos:BB	*	*	*	*	*
!	!	!LO:LB:g=original	!	!	!
!LO:PB:g=original	!	!	!	!	!
1FF	-i	1A	Qui	1f,<	.
*	*	*	*	*Xlig	*
=30-	=30-	=30-	=30-	=30-	=30-
*	*	*	*	*lig	*
1BB-	Qui	2.F/	tol-	1f	Qui
.	.	4G/	.	.	.
2.AA/	tol-	4A/	.	1c	.
.	.	4B-\	.	.	.
.	.	1c\	.	.	.
4BB-/	.	.	.	.	.
*	*	*	*	*Xlig	*
=31-	=31-	=31-	=31-	=31-	=31-
*	*	*	*	*lig	*
2C/	.	.	.	1A	.
2.D/	.	2F/	.	.	.
*	*	*	*	*custos:B	*
.	.	1.B-	.	1F,<	.
4C/	.	.	.	.	.
4BB-/	.	.	.	.	.
4AA/	.	.	.	.	.
!	!	!	!	!LO:LB:g=original	!
*	*	*	*	*Xlig	*
=32-	=32-	=32-	=32-	=32-	=32-
*	*	*	*	*lig	*
2GG/	.	.	.	1B-	tol-
2BB-/	.	4F/	.	.	.
.	.	4G/	.	.	.
4FF/	.	4A/	.	1A	.
4GG/	.	4B-\	.	.	.
4AA/	.	1c\	.	.	.
4BB-/	.	.	.	.	.
*	*	*	*	*Xlig	*
=33-	=33-	=33-	=33-	=33-	=33-
*	*	*	*	*lig	*
2C/	.	.	.	1G	.
2AA/	-lis	4B-\	.	.	.
.	.	4c\	.	.	.
1D	Qui	1.d	.	1A	.
*	*	*	*	*Xlig	*
=34-	=34-	=34-	=34-	=34-	=34-
*	*	*	*	*lig	*
2BB-/	tol-	.	.	1G	-lis
2C/	.	4c\	.	.	.
.	.	4B-\	.	.	.
*custos:F	*	*	*	*	*
0FF	-lis	2A/	-lis	1F,<	.
*	*	*custos:c	*	*	*
.	.	2c\	pec-	.	.
!	!	!LO:LB:g=original	!	!	!
*	*	*	*	*Xlig	*
=35-	=35-	=35-	=35-	=35-	=35-
.	.	2.c\	-ca-	1A	pec-
.	.	4B-\	.	.	.
!LO:LB:g=original	!	!	!	!	!
2r	.	2.A/	.	1c	-ca-
2F\	pec-	.	.	.	.
.	.	4G/	.	.	.
=36-	=36-	=36-	=36-	=36-	=36-
2.F\	-ca-	2F/	.	1c	-ta
.	.	1A	.	.	.
4E\	.	.	.	.	.
*	*	*	*	*lig	*
1D	-ta	.	.	1d	mun-
.	.	2B-\	-ta	.	.
=37-	=37-	=37-	=37-	=37-	=37-
1C	.	2c\	mun-	1e	.
.	.	4B-\	.	.	.
.	.	4A/	.	.	.
*	*	*	*	*Xlig	*
0G	mun-	2.B-\	.	1d	.
.	.	4c\	.	.	.
=38-	=38-	=38-	=38-	=38-	=38-
.	.	2d\	.	1B-	.
.	.	1G	-di	.	.
*	*	*	*	*custos:f	*
1C	-di	.	.	1c	-di
.	.	2c\	mi-	.	.
!	!	!	!	!LO:LB:g=original	!
=39-	=39-	=39-	=39-	=39-	=39-
0rE	.	2A/	-se-	1f	Mi-
.	.	1B-	-re-	.	.
*	*	*	*	*lig	*
.	.	.	.	1f	-se-
.	.	4A/	.	.	.
.	.	4G/	.	.	.
=40-	=40-	=40-	=40-	=40-	=40-
2r	.	2.A/	.	1c	.
1F	Mi-	.	.	.	.
*	*	*custos:c	*	*	*
.	.	4B-\	.	.	.
!	!	!LO:PB:g=original	!	!	!
*	*	*	*	*Xlig	*
.	.	1.c	-[re]	1A	-re-
2F\	-se-	.	.	.	.
=41-	=41-	=41-	=41-	=41-	=41-
1D	-re-	.	.	1F	-re
.	.	1f	Mi-	.	.
*	*	*	*	*lig	*
2.BB-/	-re-	.	.	1B-	no-
.	.	2f\	-se-	.	.
4C/	.	.	.	.	.
=42-	=42-	=42-	=42-	=42-	=42-
2D/	.	1d	-re-	1A	.
2D/	-no-	.	.	.	.
*	*	*	*	*Xlig	*
*	*	*	*	*lig	*
2GG/	-bis	2B-\	-re	1G	.
*custos:AA	*	*	*	*	*
2C/	mi-	2.G/	no-	.	.
!LO:LB:g=original	!	!	!	!	!
=43-	=43-	=43-	=43-	=43-	=43-
2AA/	-se-	.	.	1A	.
.	.	4F/	.	.	.
2FF/	-re-	1F	.	.	.
*	*	*	*	*Xlig	*
*	*	*	*	*lig	*
2C/	-re	.	.	1G	-bis.
2C/	no-	2E/	.	.	.
=44-	=44-	=44-	=44-	=44-	=44-
1FF	-bis	2F,</	-bis	[000Fl;;	.
.	.	1c	Mi-	.	.
2r	.	.	.	.	.
*	*ij	*	*	*	*
1F\	mi-	2c\	-ſe-	.	.
=45-	=45-	=45-	=45-	=45-	=45-
.	.	1A	-re-	.	.
2F\	-se-	.	.	.	.
1D	-re-	2F/	-re	.	.
*	*	*	*ij	*	*
.	.	1f\	Mi-	.	.
=46-	=46-	=46-	=46-	=46-	=46-
1BB-	-re	.	.	.	.
.	.	2f\	-ſe-	.	.
0BB-	no-	2d\	-re-	.	.
.	.	1B-\	-re	.	.
*	*	*	*Xij	*	*
=47-	=47-	=47-	=47-	=47-	=47-
.	.	.	.	.	.
.	.	4A/	.	.	.
.	.	4G/	.	.	.
[1FFl;;	-bis	2A/	.	.	.
*	*Xij	*	*	*	*
.	.	2A/	no-	.	.
*	*	*	*	*Xlig	*
=48-	=48-	=48-	=48-	=48-	=48-
0FF]	.	0Al;;	-bis	0F]	.
=-	=-	=-	=-	=-	=-
*-	*-	*-	*-	*-	*-
!!!system-decoration: [(s1,s2,s3)]
!!!RDF**kern: > = above
!!!RDF**kern: < = below
!!!RDF**kern: l = terminal long
!!!EED: Antoni Szymański
!!!EST: 2021-03-21
!!!ENC: Andrzej Borzym
!!!END: 2021-03-06
